X:1
T:Blatherie o't, The
M:C|
L:1/8
R:Air
Q:"Andante"
S:John Rook music manuscript collection (1840, p. 40)
N:Rook was a multi-instrumentalist from Waverton, near Wigton, Cumbria
Z:AK/Fiddler’s Companion
K:D
D>E|F2 dB A<FE>F|D2 A>B BAD>E|F2 dB A<FE>D|F2 B>c cB z2:|
|:d|A>B d>e f2 ed|e>d e>f A2 d>e|{de}f2 ed B2 dD|F2 B>c cB:|]

